public/images/json.svg

<svg fill="none" height="800" viewBox="0 0 24 24" width="800" xmlns="http://www.w3.org/2000/svg"><g stroke="#222"><path d="m14 19h2c1.1046 0 2-.8954 2-2v-2.4384c0-.9178.6246-1.7177 1.5149-1.9403l1.515-.3788c.2524-.0631.2524-.4219 0-.485l-1.515-.3788c-.8903-.2226-1.5149-1.0225-1.5149-1.94025v-4.43845h-4"/><path d="m10 5h-2c-1.10457 0-2 .89543-2 2v2.43845c0 .91775-.62459 1.71765-1.51493 1.94025l-1.51493.3788c-.25249.0631-.25249.4219 0 .485l1.51493.3788c.89034.2226 1.51493 1.0225 1.51493 1.9403v4.4384h4"/></g></svg>

<!DOCTYPE svg PUBLIC "-//W3C//DTD SVG 1.1//EN" "http://www.w3.org/Graphics/SVG/1.1/DTD/svg11.dtd">
<!-- Uploaded to: SVG Repo, www.svgrepo.com, Transformed by: SVG Repo Mixer Tools -->
<svg width="800px" height="800px" viewBox="0 0 24 24" fill="none" xmlns="http://www.w3.org/2000/svg">
<g id="SVGRepo_bgCarrier" stroke-width="0"/>
<g id="SVGRepo_tracerCarrier" stroke-linecap="round" stroke-linejoin="round"/>
<g id="SVGRepo_iconCarrier"> <path d="M14 19H16C17.1046 19 18 18.1046 18 17V14.5616C18 13.6438 18.6246 12.8439 19.5149 12.6213L21.0299 12.2425C21.2823 12.1794 21.2823 11.8206 21.0299 11.7575L19.5149 11.3787C18.6246 11.1561 18 10.3562 18 9.43845V5H14" stroke="#222222"/> <path d="M10 5H8C6.89543 5 6 5.89543 6 7V9.43845C6 10.3562 5.37541 11.1561 4.48507 11.3787L2.97014 11.7575C2.71765 11.8206 2.71765 12.1794 2.97014 12.2425L4.48507 12.6213C5.37541 12.8439 6 13.6438 6 14.5616V19H10" stroke="#222222"/> </g>
</svg>
